X:197
T:All the World Is Desolation.
O:england
S:Digital Tradition, wldesol
M:6/8
L:1/8
Q:3/8=100
W:All the world is desolation
W:Sad and quiet as the tomb.
W:Father has a penile stricture,
W:Mother has a droopy womb.
W:
W:Sister Amy was aborted
W:For the forty-second time;
W:Cousin Hymie was deported
W:For a homosexual crime.
W:
W:All the world is desolation
W:In our family, no one smiles.
W:All we do for recreation
W:Is crack ice, for Grandma's piles.
K:C
G,G,|C3 G,ED|C2G,2B,C|D3 G,ED|C4G,G,|\
C3 G,ED|C2G,2B,C|D3 G,ED|C4B,C|
D2G,2A,G,|G,2C2CC|D3 DE^D|D4G,G,|\
C3 G,CB,|B,2A,2A,A,|G,3 G,A,B,|C4G,G,|
C3 G,ED|C2G,2B,C|D3 G,ED|C4G,G,|\
C3 G,ED|C2G,2B,A,|G,3 FED|C4||


